X:1
T:Ingham, LM
T:Ingham, LM
T:Lowell Mason (1792-1872)
T:Public Domain Courtesy of the Cyber Hymnal™
C:Lowell Mason (1792-1872)
Z:Public Domain
Z:Courtesy of the Cyber Hymnal™
%%score ( 1 2 ) ( 3 4 )
L:1/8
Q:1/4=110
M:4/4
K:Ab
V:1 treble 
V:2 treble 
V:3 bass 
V:4 bass 
V:1
 [EA]2 [EA][EA] [EG]2 [EA]2 | [DF]2 [DG]2 [EA]4 | [DG]2 [DG][DG] [CA]3 [CA] | [FB]2 [FB]2 [=Ec]4 | %4
 [Fc]2 [Fc][Fc] [Fd]3 [EB] | [Ec]2 [F=d]2 [Ge]4 | [Ae]2 [Ec][EA] [FA]2 [DF]2 | E2 [DE]2 [CE]4 |] %8
V:2
 x8 | x8 | x8 | x8 | x8 | x8 | x8 | (B,C) x6 |] %8
V:3
 [A,,C]2 [A,,C][A,,C] [B,,D]2 [A,,C]2 | [D,A,]2 [B,,B,]2 [A,,C]4 | %2
 [E,B,]2 [E,B,][E,B,] [F,A,]3 [F,A,] | [D,F,]2 [D,F,]2 [C,G,]4 | %4
 [F,A,]2 [F,A,][F,A,] [D,A,]3 [E,G,] | A,2 [F,A,]2 [E,B,]4 | [A,C]2 A,[C,A,] [D,A,]2 [D,A,]2 | %7
 (G,A,) [E,B,]2 [A,,A,]4 |] %8
V:4
 x8 | x8 | x8 | x8 | x8 | A,2 x6 | x2 A, x5 | E,2 x6 |] %8

